Yaru++/mimetypes/scalable/application-x-shellscript.svg

<svg height="256" viewBox="0 0 67.73 67.73" width="256" xmlns="http://www.w3.org/2000/svg" xmlns:xlink="http://www.w3.org/1999/xlink"><linearGradient id="a" gradientTransform="matrix(0 -.11988342 .11987999 0 .362762 62.749399)" gradientUnits="userSpaceOnUse" x1="529.65515" x2="-35.310345" y1="401.58368" y2="119.09284"><stop offset="0" stop-color="#f2f2f2"/><stop offset="1" stop-color="#f9f9f9"/></linearGradient><linearGradient id="b" gradientUnits="userSpaceOnUse" x1="88" x2="488" y1="88" y2="488"><stop offset="0" stop-opacity=".588235"/><stop offset=".88" stop-opacity="0"/><stop offset="1"/></linearGradient><filter id="c" color-interpolation-filters="sRGB" height="1.087725" width="1.105998" x="-.052999" y="-.043863"><feGaussianBlur stdDeviation="8.4801079"/></filter><filter id="d" color-interpolation-filters="sRGB" height="1.021931" width="1.0265" x="-.01325" y="-.010966"><feGaussianBlur stdDeviation="2.120027"/></filter><path d="m20.703991 3.4856495c-9.338465 0-10.343273.9591779-10.297505 10.3165305v19.315345 19.315344c-.04577 9.357355.95904 10.316531 10.297505 10.316531h25.969365c9.338465 0 10.297506-.959068 10.297506-10.316531v-19.315344-19.315345c0-9.357464-.959041-10.3165305-10.297506-10.3165305z" fill="none" opacity=".2" stroke="#000" stroke-width="1.058281"/><path d="m189.84323 74c-70.59344 0-78.18921 7.250835-77.84323 77.98706v146.01294 146.01294c-.34598 70.73623 7.24979 77.98706 77.84323 77.98706h196.31354c70.59344 0 76.00668-7.27384 77.84323-77.98706v-146.01294-146.01294c0-70.737067-7.24979-77.98706-77.84323-77.98706z" filter="url(#d)" opacity=".1" transform="matrix(.13228516 0 0 .13228516 -4.409451 -6.038882)"/><path d="m189.84323 74c-70.59344 0-78.18921 7.250835-77.84323 77.98706v146.01294 146.01294c-.34598 70.73623 7.24979 77.98706 77.84323 77.98706h196.31354c70.59344 0 77.84323-7.24999 77.84323-77.98706v-146.01294-146.01294c0-70.737067-7.24979-77.98706-77.84323-77.98706z" fill="url(#b)" filter="url(#c)" opacity=".3" transform="matrix(.13228516 0 0 .13228516 -4.409451 -6.038882)"/><path d="m20.703991 3.4856495c-9.338465 0-10.343273.9591779-10.297505 10.3165305v19.315345 19.315344c-.04577 9.357355.95904 10.316531 10.297505 10.316531h25.969365c9.338465 0 10.297506-.959068 10.297506-10.316531v-19.315344-19.315345c0-9.357464-.959041-10.3165305-10.297506-10.3165305z" fill="url(#a)"/><path d="m20.70406 3.4856495c-9.338466 0-10.343342.9593396-10.297574 10.3166915v.529141c-.04577-9.3573523.959108-10.3166919 10.297574-10.3166919h25.969228c9.338467 0 10.297574.9592282 10.297574 10.3166919v-.529141c0-9.3574633-.959107-10.3166915-10.297574-10.3166915z" fill="#fff" opacity=".6"/><path d="m18.481034 16.492001-.679186 2.043225 6.894784 2.765578-6.894784 2.765577.679186 2.043226 8.870612-3.756232v-2.105141zm8.857952 12.424459v2.084502h10.5553v-2.084502z" fill="#999"/><g fill="#fff"><path d="m33.688674 3.4856495v59.2637505h12.984614c9.338464 0 10.054627-.962123 10.297574-10.316435v-19.31544-19.315442c0-9.3574638-.95911-10.3164335-10.297574-10.3164335z" opacity=".1"/><path d="m10.406486 33.117525v19.31544c-.04577 9.357354.959109 10.316435 10.297574 10.316435h25.969228c9.338464 0 10.054627-.962123 10.297574-10.316435v-19.31544z" opacity=".2"/><path d="m41.096643 62.7494 15.874219-15.874219v5.948567c-.01384 8.994282-1.006077 9.925652-10.099734 9.925652z" opacity=".4"/></g></svg>

<?xml version="1.0" encoding="UTF-8" standalone="no"?>
<svg
   xmlns:dc="http://purl.org/dc/elements/1.1/"
   xmlns:cc="http://creativecommons.org/ns#"
   xmlns:rdf="http://www.w3.org/1999/02/22-rdf-syntax-ns#"
   xmlns:svg="http://www.w3.org/2000/svg"
   xmlns="http://www.w3.org/2000/svg"
   xmlns:xlink="http://www.w3.org/1999/xlink"
   xmlns:sodipodi="http://sodipodi.sourceforge.net/DTD/sodipodi-0.dtd"
   xmlns:inkscape="http://www.inkscape.org/namespaces/inkscape"
   width="256"
   height="256"
   version="1.1"
   viewBox="0 0 67.73 67.73"
   id="svg35"
   sodipodi:docname="application-x-shellscript.svg"
   inkscape:version="0.92.4 (5da689c313, 2019-01-14)">
  <metadata
     id="metadata39">
    <rdf:RDF>
      <cc:Work
         rdf:about="">
        <dc:format>image/svg+xml</dc:format>
        <dc:type
           rdf:resource="http://purl.org/dc/dcmitype/StillImage" />
        <dc:title></dc:title>
      </cc:Work>
    </rdf:RDF>
  </metadata>
  <sodipodi:namedview
     pagecolor="#ffffff"
     bordercolor="#666666"
     borderopacity="1"
     objecttolerance="10"
     gridtolerance="10"
     guidetolerance="10"
     inkscape:pageopacity="0"
     inkscape:pageshadow="2"
     inkscape:window-width="854"
     inkscape:window-height="480"
     id="namedview37"
     showgrid="false"
     inkscape:zoom="0.921875"
     inkscape:cx="143.66429"
     inkscape:cy="128"
     inkscape:window-x="0"
     inkscape:window-y="27"
     inkscape:window-maximized="0"
     inkscape:current-layer="svg35" />
  <defs
     id="defs11">
    <linearGradient
       id="linearGradient4226"
       x1="529.655"
       x2="-35.31"
       y1="401.584"
       y2="119.093"
       gradientTransform="matrix(0 -.11988932 .11988589 0 .36277965 292.5483)"
       gradientUnits="userSpaceOnUse">
      <stop
         style="stop-color:#f2f2f2"
         id="stop2"
         offset="0" />
      <stop
         style="stop-color:#f9f9f9"
         id="stop4"
         offset="1" />
    </linearGradient>
    <linearGradient
       id="linearGradient4358"
       x1="88"
       x2="488"
       y1="88"
       y2="488"
       gradientUnits="userSpaceOnUse">
      <stop
         style="stop-color:#000000;stop-opacity:.58823532"
         id="stop7"
         offset="0" />
      <stop
         style="stop-color:#000000;stop-opacity:0"
         id="stop9"
         offset=".88" />
      <stop
         style="stop-color:#000000"
         id="stop11"
         offset="1" />
    </linearGradient>
    <filter
       id="filter4346"
       width="1.026"
       height="1.022"
       x="-.01"
       y="-.01"
       style="color-interpolation-filters:sRGB">
      <feGaussianBlur
         id="feGaussianBlur14"
         stdDeviation="2.12" />
    </filter>
    <linearGradient
       gradientUnits="userSpaceOnUse"
       y2="119.09284"
       x2="-35.310345"
       y1="401.58368"
       x1="529.65515"
       id="linearGradient4226-3"
       xlink:href="#linearGradient4338"
       inkscape:collect="always"
       gradientTransform="matrix(0,-0.11988342,0.11987999,0,0.3627617,62.749399)" />
    <linearGradient
       inkscape:collect="always"
       id="linearGradient4338">
      <stop
         style="stop-color:#f2f2f2;stop-opacity:1"
         offset="0"
         id="stop4340" />
      <stop
         style="stop-color:#f9f9f9;stop-opacity:1"
         offset="1"
         id="stop4342" />
    </linearGradient>
    <linearGradient
       inkscape:collect="always"
       xlink:href="#linearGradient4360"
       id="linearGradient4358-6"
       x1="88"
       y1="88"
       x2="488"
       y2="488"
       gradientUnits="userSpaceOnUse" />
    <linearGradient
       id="linearGradient4360"
       inkscape:collect="always">
      <stop
         id="stop4362"
         offset="0"
         style="stop-color:#000000;stop-opacity:0.58823532" />
      <stop
         style="stop-color:#000000;stop-opacity:0"
         offset="0.88"
         id="stop4364" />
      <stop
         id="stop4366"
         offset="1"
         style="stop-color:#000000;stop-opacity:1" />
    </linearGradient>
    <filter
       inkscape:collect="always"
       style="color-interpolation-filters:sRGB"
       id="filter4380"
       x="-0.052999184"
       width="1.1059984"
       y="-0.043862626"
       height="1.0877253">
      <feGaussianBlur
         inkscape:collect="always"
         stdDeviation="8.4801079"
         id="feGaussianBlur4382" />
    </filter>
    <filter
       inkscape:collect="always"
       style="color-interpolation-filters:sRGB"
       id="filter4346-7"
       x="-0.013249796"
       width="1.0264996"
       y="-0.010965657"
       height="1.0219313">
      <feGaussianBlur
         inkscape:collect="always"
         stdDeviation="2.120027"
         id="feGaussianBlur4348" />
    </filter>
  </defs>
  <path
     sodipodi:nodetypes="scccssscsss"
     inkscape:connector-curvature="0"
     id="path1163"
     d="m 20.703991,3.4856495 c -9.338465,0 -10.343273,0.9591779 -10.297505,10.3165305 v 19.315345 19.315344 c -0.04577,9.357355 0.95904,10.316531 10.297505,10.316531 h 25.969365 c 9.338465,0 10.297506,-0.959068 10.297506,-10.316531 V 33.117525 13.80218 c 0,-9.357464 -0.959041,-10.3165305 -10.297506,-10.3165305 z"
     style="color:#000000;display:inline;overflow:visible;visibility:visible;opacity:0.2;fill:none;fill-opacity:1;fill-rule:nonzero;stroke:#000000;stroke-width:1.0582813;stroke-miterlimit:4;stroke-dasharray:none;stroke-opacity:1;marker:none;enable-background:accumulate" />
  <path
     style="color:#000000;display:inline;overflow:visible;visibility:visible;opacity:0.1;fill:#000000;fill-opacity:1;fill-rule:nonzero;stroke:none;stroke-width:2;marker:none;filter:url(#filter4346-7);enable-background:accumulate"
     d="M 189.84323,74 C 119.24979,74 111.65402,81.250835 112,151.98706 V 298 444.01294 C 111.65402,514.74917 119.24979,522 189.84323,522 H 386.15677 C 456.75021,522 462.16345,514.72616 464,444.01294 V 298 151.98706 C 464,81.249993 456.75021,74 386.15677,74 Z"
     id="rect4158-9"
     inkscape:connector-curvature="0"
     sodipodi:nodetypes="scccssscsss"
     transform="matrix(0.13228516,0,0,0.13228516,-4.4094514,-6.0388816)" />
  <path
     sodipodi:nodetypes="scccssscsss"
     inkscape:connector-curvature="0"
     id="path4350"
     d="M 189.84323,74 C 119.24979,74 111.65402,81.250835 112,151.98706 V 298 444.01294 C 111.65402,514.74917 119.24979,522 189.84323,522 H 386.15677 C 456.75021,522 464,514.75001 464,444.01294 V 298 151.98706 C 464,81.249993 456.75021,74 386.15677,74 Z"
     style="color:#000000;display:inline;overflow:visible;visibility:visible;opacity:0.3;fill:url(#linearGradient4358-6);fill-opacity:1;fill-rule:nonzero;stroke:none;stroke-width:2;marker:none;filter:url(#filter4380);enable-background:accumulate"
     transform="matrix(0.13228516,0,0,0.13228516,-4.4094514,-6.0388816)" />
  <path
     style="color:#000000;display:inline;overflow:visible;visibility:visible;fill:url(#linearGradient4226-3);fill-opacity:1;fill-rule:nonzero;stroke:none;stroke-width:0.26457033;marker:none;enable-background:accumulate"
     d="m 20.703991,3.4856495 c -9.338465,0 -10.343273,0.9591779 -10.297505,10.3165305 v 19.315345 19.315344 c -0.04577,9.357355 0.95904,10.316531 10.297505,10.316531 h 25.969365 c 9.338465,0 10.297506,-0.959068 10.297506,-10.316531 V 33.117525 13.80218 c 0,-9.357464 -0.959041,-10.3165305 -10.297506,-10.3165305 z"
     id="rect4158"
     inkscape:connector-curvature="0"
     sodipodi:nodetypes="scccssscsss" />
  <path
     style="color:#000000;display:inline;overflow:visible;visibility:visible;opacity:0.6;fill:#ffffff;fill-opacity:1;fill-rule:nonzero;stroke:none;stroke-width:0.26457033;marker:none;enable-background:accumulate"
     d="m 20.70406,3.4856495 c -9.338466,0 -10.343342,0.9593396 -10.297574,10.3166915 v 0.529141 C 10.360716,4.9741297 11.365594,4.0147901 20.70406,4.0147901 h 25.969228 c 9.338467,0 10.297574,0.9592282 10.297574,10.3166919 v -0.529141 c 0,-9.3574633 -0.959107,-10.3166915 -10.297574,-10.3166915 z"
     id="path931"
     inkscape:connector-curvature="0" />
  <path
     style="font-style:normal;font-variant:normal;font-weight:500;font-stretch:normal;font-size:299.10678101px;line-height:125%;font-family:Ubuntu;-inkscape-font-specification:'Ubuntu Medium';text-align:center;letter-spacing:0px;word-spacing:0px;writing-mode:lr-tb;text-anchor:middle;display:inline;fill:#999999;fill-opacity:1;stroke:none;stroke-width:0.26457033;enable-background:new"
     d="m 18.481034,16.492001 -0.679186,2.043225 6.894784,2.765578 -6.894784,2.765577 0.679186,2.043226 8.870612,-3.756232 v -2.105141 z m 8.857952,12.424459 v 2.084502 h 10.5553 V 28.91646 Z"
     id="path4212"
     inkscape:connector-curvature="0"
     sodipodi:nodetypes="ccccccccccccc" />
  <path
     style="color:#000000;display:inline;overflow:visible;visibility:visible;opacity:0.1;fill:#ffffff;fill-opacity:1;fill-rule:nonzero;stroke:none;stroke-width:0.26457033;marker:none;enable-background:accumulate"
     d="M 33.688674,3.4856495 V 62.7494 h 12.984614 c 9.338464,0 10.054627,-0.962123 10.297574,-10.316435 V 33.117525 13.802083 c 0,-9.3574638 -0.95911,-10.3164335 -10.297574,-10.3164335 z"
     id="path4231"
     inkscape:connector-curvature="0"
     sodipodi:nodetypes="ccsscssc" />
  <path
     inkscape:connector-curvature="0"
     style="color:#000000;display:inline;overflow:visible;visibility:visible;opacity:0.2;fill:#ffffff;fill-opacity:1;fill-rule:nonzero;stroke:none;stroke-width:0.26457033;marker:none;enable-background:accumulate"
     d="m 10.406486,33.117525 v 19.31544 C 10.360716,61.790319 11.365595,62.7494 20.70406,62.7494 h 25.969228 c 9.338464,0 10.054627,-0.962123 10.297574,-10.316435 v -19.31544 z"
     id="path4255"
     sodipodi:nodetypes="ccssscc" />
  <path
     style="color:#000000;display:inline;overflow:visible;visibility:visible;opacity:0.4;fill:#ffffff;fill-opacity:1;fill-rule:nonzero;stroke:none;stroke-width:2.11656237;stroke-linecap:butt;stroke-linejoin:miter;stroke-miterlimit:4;stroke-dasharray:none;stroke-dashoffset:0;stroke-opacity:1;marker:none;enable-background:accumulate"
     d="M 41.096643,62.7494 56.970862,46.875181 v 5.948567 C 56.957022,61.81803 55.964785,62.7494 46.871128,62.7494 Z"
     id="path4254"
     inkscape:connector-curvature="0"
     sodipodi:nodetypes="cccsc" />
</svg>
